X:111
T:Bill Sullivan's
L:1/8
M:2/4
R:Polka
K:D
d2 d>B | AF d2 | FA d>B | AF ED |
d2 d>B | AF d2 | FA E>F | ED D2 :|
|: FA AF | GB B2 | FA AD/E/ | FE ED |
FA AF | GB B2 | FA E>F | ED D2 :|

